icons/mobile/20/svg/sun-fill-20.svg

<svg width="20" height="20" viewBox="0 0 20 20" fill="none" xmlns="http://www.w3.org/2000/svg">
<path d="M10 15C10.4142 15 10.75 15.3358 10.75 15.75V17.25C10.75 17.6642 10.4142 18 10 18C9.58579 18 9.25 17.6642 9.25 17.25V15.75C9.25 15.3358 9.58579 15 10 15Z" fill="black"/>
<path d="M13.5361 13.5361C13.829 13.2433 14.3038 13.2432 14.5967 13.5361L15.6582 14.5967C15.9506 14.8896 15.9509 15.3655 15.6582 15.6582C15.3655 15.9509 14.8896 15.9506 14.5967 15.6582L13.5361 14.5967C13.2432 14.3038 13.2432 13.829 13.5361 13.5361Z" fill="black"/>
<path d="M5.40332 13.5361C5.69621 13.2432 6.17195 13.2432 6.46484 13.5361C6.75716 13.829 6.75731 14.3039 6.46484 14.5967L5.40332 15.6582C5.11056 15.9505 4.63556 15.9505 4.34277 15.6582C4.04994 15.3654 4.05005 14.8896 4.34277 14.5967L5.40332 13.5361Z" fill="black"/>
<path d="M10 6.5C11.93 6.5 13.5 8.07 13.5 10C13.5 11.93 11.93 13.5 10 13.5C8.07 13.5 6.5 11.93 6.5 10C6.5 8.07 8.07 6.5 10 6.5Z" fill="black"/>
<path d="M4.25 9.25C4.66421 9.25 5 9.58579 5 10C5 10.4142 4.66421 10.75 4.25 10.75H2.75C2.33579 10.75 2 10.4142 2 10C2 9.58579 2.33579 9.25 2.75 9.25H4.25Z" fill="black"/>
<path d="M17.25 9.25C17.6642 9.25 18 9.58579 18 10C18 10.4142 17.6642 10.75 17.25 10.75H15.75C15.3358 10.75 15 10.4142 15 10C15 9.58579 15.3358 9.25 15.75 9.25H17.25Z" fill="black"/>
<path d="M4.34277 4.34277C4.63567 4.04988 5.11043 4.04988 5.40332 4.34277L6.46484 5.40332C6.75764 5.69622 6.7577 6.17198 6.46484 6.46484C6.17198 6.7577 5.69622 6.75764 5.40332 6.46484L4.34277 5.40332C4.04988 5.11043 4.04988 4.63567 4.34277 4.34277Z" fill="black"/>
<path d="M14.5967 4.34277C14.8896 4.05006 15.3654 4.04994 15.6582 4.34277C15.9504 4.63556 15.9505 5.11056 15.6582 5.40332L14.5967 6.46484C14.3039 6.75731 13.829 6.75714 13.5361 6.46484C13.2432 6.17195 13.2432 5.69621 13.5361 5.40332L14.5967 4.34277Z" fill="black"/>
<path d="M10 2C10.4142 2 10.75 2.33579 10.75 2.75V4.25C10.75 4.66421 10.4142 5 10 5C9.58579 5 9.25 4.66421 9.25 4.25V2.75C9.25 2.33579 9.58579 2 10 2Z" fill="black"/>
</svg>

<!-- This Source Code Form is subject to the terms of the Mozilla Public
   - License, v. 2.0. If a copy of the MPL was not distributed with this
   - file, You can obtain one at http://mozilla.org/MPL/2.0/. -->
<svg xmlns="http://www.w3.org/2000/svg" width="20" height="20" fill="none" viewBox="0 0 20 20">
    <path fill="#000" d="M10 15a.75.75 0 0 1 .75.75v1.5a.75.75 0 0 1-1.5 0v-1.5A.75.75 0 0 1 10 15m3.536-1.464a.75.75 0 0 1 1.06 0l1.062 1.06a.752.752 0 0 1-1.061 1.062l-1.06-1.061a.75.75 0 0 1 0-1.06m-8.134-.001a.751.751 0 0 1 1.062 1.06l-1.062 1.062a.75.75 0 0 1-1.06-1.061zM10 6.5c1.93 0 3.5 1.57 3.5 3.5s-1.57 3.5-3.5 3.5-3.5-1.57-3.5-3.5S8.07 6.5 10 6.5M4.25 9.25a.75.75 0 0 1 0 1.5h-1.5a.75.75 0 0 1 0-1.5zm13 0a.75.75 0 0 1 0 1.5h-1.5a.75.75 0 0 1 0-1.5zM4.343 4.343a.75.75 0 0 1 1.06 0l1.062 1.06a.751.751 0 0 1-1.062 1.062l-1.06-1.062a.75.75 0 0 1 0-1.06m10.254 0a.751.751 0 0 1 1.061 1.06l-1.061 1.062a.75.75 0 0 1-1.06-1.062zM10 2a.75.75 0 0 1 .75.75v1.5a.75.75 0 0 1-1.5 0v-1.5A.75.75 0 0 1 10 2" />
</svg>
